packages/kaspersky-hexa-ui-icons/src/iconsSVGs/24/Home.svg

<svg width="24" height="24" viewBox="0 0 24 24" fill="none" xmlns="http://www.w3.org/2000/svg">
<path fill-rule="evenodd" clip-rule="evenodd" d="M3.00002 11.4626L2.64767 11.7621C2.22686 12.1197 1.59577 12.0686 1.23808 11.6478C0.880394 11.227 0.931564 10.5959 1.35237 10.2382L10.0571 2.83918C11.1774 1.88694 12.8227 1.88694 13.943 2.83918L22.6477 10.2382C23.0685 10.5959 23.1196 11.227 22.762 11.6478C22.4043 12.0686 21.7732 12.1197 21.3524 11.7621L21 11.4626V17.0001C21 19.2093 19.2092 21.0001 17 21.0001H7.00002C4.79088 21.0001 3.00002 19.2093 3.00002 17.0001V11.4626ZM11.3524 4.36306C11.7258 4.04565 12.2742 4.04565 12.6477 4.36306L19 9.76256V17.0001C19 18.1047 18.1046 19.0001 17 19.0001H7.00002C5.89545 19.0001 5.00002 18.1047 5.00002 17.0001V9.76256L11.3524 4.36306Z" fill="black"/>
</svg>

<svg xmlns="http://www.w3.org/2000/svg" width="24" height="24" fill="none" viewBox="0 0 24 24"><path fill="#000" fill-rule="evenodd" d="m3 11.4624-.3523.2995c-.4208.3577-1.052.3066-1.4096-.1143-.3577-.4208-.3065-1.0519.1143-1.4095l8.7047-7.399c1.1203-.9523 2.7656-.9523 3.8859 0l8.7047 7.399c.4208.3576.4719.9887.1143 1.4095-.3577.4209-.9888.472-1.4096.1143L21 11.4624V17c0 2.2091-1.7908 4-4 4H7c-2.2091 0-4-1.7909-4-4zm8.3524-7.0995a1 1 0 0 1 1.2953 0L19 9.7624V17c0 1.1046-.8954 2-2 2H7c-1.1045 0-2-.8954-2-2V9.7624z"/></svg>
